assets/images/nearLogos/noMargin/icon_nm.svg

<svg viewBox="0 0 144 144" xmlns="http://www.w3.org/2000/svg"><path d="m115.58 7.31-30.1 44.69a3.2 3.2 0 0 0 4.75 4.2l29.63-25.68a1.2 1.2 0 0 1 2 .91v80.46a1.2 1.2 0 0 1 -2.12.77l-89.56-107.23a15.35 15.35 0 0 0 -11.71-5.43h-3.13a15.34 15.34 0 0 0 -15.34 15.34v113.32a15.34 15.34 0 0 0 15.34 15.34 15.35 15.35 0 0 0 13.08-7.31l30.1-44.69a3.2 3.2 0 0 0 -4.75-4.2l-29.63 25.68a1.2 1.2 0 0 1 -2-.91v-80.46a1.2 1.2 0 0 1 2.12-.77l89.55 107.23a15.35 15.35 0 0 0 11.72 5.43h3.13a15.34 15.34 0 0 0 15.34-15.34v-113.32a15.34 15.34 0 0 0 -15.34-15.34 15.35 15.35 0 0 0 -13.08 7.31z"/></svg>

<svg id="Layer_1" data-name="Layer 1" xmlns="http://www.w3.org/2000/svg" viewBox="0 0 144 144"><path d="M115.58,7.31,85.48,52a3.2,3.2,0,0,0,4.75,4.2l29.63-25.68a1.2,1.2,0,0,1,2,.91v80.46a1.2,1.2,0,0,1-2.12.77L30.18,5.43A15.35,15.35,0,0,0,18.47,0H15.34A15.34,15.34,0,0,0,0,15.34V128.66A15.34,15.34,0,0,0,15.34,144h0a15.35,15.35,0,0,0,13.08-7.31L58.52,92a3.2,3.2,0,0,0-4.75-4.2L24.14,113.48a1.2,1.2,0,0,1-2-.91V32.11a1.2,1.2,0,0,1,2.12-.77l89.55,107.23A15.35,15.35,0,0,0,125.53,144h3.13A15.34,15.34,0,0,0,144,128.66V15.34A15.34,15.34,0,0,0,128.66,0h0A15.35,15.35,0,0,0,115.58,7.31Z"/></svg>
